icon-themes/sifr_svg/cmd/sc_signpdf.svg

<svg viewBox="0 0 16 16" xmlns="http://www.w3.org/2000/svg"><path d="m2 1v14h5v-2h-3v-5.5859375c0-.6707277 2.3332016 1.5421649 4 3.3789065v-.792969c0-.5692394.126259-1.1097707.34375-1.6015625-.5783427-.4878406-1.2115152-.9572068-1.9296875-1.3984375 1.0874778 0 2.0651792-.0058185 3.0546875-.0644531.693038-.5745153 1.56775-.9355469 2.53125-.9355469.730674 0 1.40837.2136432 2 .5605469v-1.5605469-4h-4zm2 2h8v1.6464844c-2 .3535534-5.3588606.4666977-8 .3535156zm8 4a3 3 0 0 0 -3 3v2h-1v4h8v-4h-1v-2a3 3 0 0 0 -3-3zm0 2a1 1 0 0 1 1 1v2h-2v-2a1 1 0 0 1 1-1z" fill="#555753"/></svg>

<svg xmlns="http://www.w3.org/2000/svg" viewBox="0 0 16 16">
  <path
     style="fill:#555753"
     d="M 2 1 L 2 15 L 7 15 L 7 13 L 4 13 L 4 7.4140625 C 4 6.7433348 6.3332016 8.9562274 8 10.792969 L 8 10 C 8 9.4307606 8.126259 8.8902293 8.34375 8.3984375 C 7.7654073 7.9105969 7.1322348 7.4412307 6.4140625 7 C 7.5015403 7 8.4792417 6.9941815 9.46875 6.9355469 C 10.161788 6.3610316 11.0365 6 12 6 C 12.730674 6 13.40837 6.2136432 14 6.5605469 L 14 5 L 14 1 L 10 1 L 2 1 z M 4 3 L 12 3 L 12 4.6464844 C 10 5.0000378 6.6411394 5.1131821 4 5 L 4 3 z M 12 7 A 3 3 0 0 0 9 10 L 9 12 L 8 12 L 8 16 L 16 16 L 16 12 L 15 12 L 15 10 A 3 3 0 0 0 12 7 z M 12 9 A 1 1 0 0 1 13 10 L 13 12 L 11 12 L 11 10 A 1 1 0 0 1 12 9 z "
     />
</svg>
